X: 27525
T: Mon Papa
R: polka
M: 2/4
K: Gmajor
DB BA/G/|FE D>D|D/E/F/G/ AA/A/|G/F/G/A/ BG|
DB BA/G/|FE D>D|D/E/F/G/ Ac|BA G2||
DG G2|BG D2|B>c BA|A>B AG|
DG G2|BG D2|B>c BA|EF G2:|

